X:1
T: The Merry Days of Easter
C:
R:Reel
Q: 232
K:G
M:4/4
L:1/8
dc|BG GA Bc dg|((3efg) dB A2 dc|BG GA Bc dg|((3efg) dB G2 dc|
BG GA Bc dg|((3efg) dB A2 dc|BG GA Bc dg|((3efg) dB G2 dc|
|:bg af gf ed|ea ga a2 ga|bg af gf ed|((3Bcd) ef g2 ga|
((3bag) af bg af|ea ab a2 ga|bc' ba gf ed|1ea af ge ga:|2ea af ge dc|
BG GA Bc dg|((3efg) dB A2 dc|BG GA Bc dg|((3efg) dB G2 dc|
BG GA Bc dg|((3efg) dB A2 dc|BG GA Bc dg|((3efg) dB G2||
